X:21086 
T:HUMORS OF CLARE, The 
B:DMI.0329
Z:Nordberg/Black
R:jig
%Q:1/4=160
M:6/8
L:1/8
K:G
"D modal"
D3 FDF|ECE G2E|D>ED F2G|ABc BGE|
D3 FDF|ECE G2E|AGE c2A|1 GEC CDE:|\
[2 GEC EFG||
%
A2G FEF|DEF G2E|A2G FEF|ABc BGE|
A2G FEF|DEFG2E|AGE c2A|1 GEC CDE:|\
[2 GEC EFG||
%
dAG FDF|ECE G2E|dAG F2G|ABc BGE|
dAG FDF|ECE G2E|AGE c2A|1 GEC CDE:|\
[2 GEC EFG|"final"HD3z3|]

%%%

